!!!!SEGMENT: Snf0323-Quomodo_fiet.krn
!!!id: Snf0323
!!!AGN: Motet
!!!voices: 5
!!!COM: Ludwig Senfl
!!!OTL: Quomodo fiet
**kern	**text	**kern	**text	**kern	**text	**kern	**text	**kern	**text
*part5	*part5	*part4	*part4	*part3	*part3	*part2	*part2	*part1	*part1
*staff5	*staff5	*staff4	*staff4	*staff3	*staff3	*staff2	*staff2	*staff1	*staff1
*I"Bassus	*	*I"Tenor	*	*I"Altus	*	*I"Superius II	*	*I"Superius I	*
*I'B	*	*I'T	*	*I'A	*	*I'S. II	*	*I'S. I	*
*clefF4	*	*clefGv2	*	*clefGv2	*	*clefG2	*	*clefG2	*
*k[]	*	*k[]	*	*k[]	*	*k[]	*	*k[]	*
*C:	*	*C:	*	*C:	*	*C:	*	*C:	*
*M3/1	*	*M3/1	*	*M3/1	*	*M3/1	*	*M3/1	*
*met(O)	*	*met(O)	*	*met(O)	*	*met(O)	*	*met(O)	*
!!section: Prima pars: Quomodo fiet
!!!OMD: Prima pars: Quomodo fiet
=1	=1	=1	=1	=1	=1	=1	=1	=1	=1
!	!	!LO:TX:a:t=Canon&colon; tenor/superius II at the octave	!	!	!	!	!	!	!
0.r	.	0.r	.	1G	Quo-	0.r	.	1r	.
.	.	.	.	1B	-mo-	.	.	1r	.
.	.	.	.	1c	-do	.	.	1g	Quo-
=2	=2	=2	=2	=2	=2	=2	=2	=2	=2
0.r	.	0.r	.	1d	fi-	0.r	.	1b	-mo-
.	.	.	.	1c	-et,	.	.	1cc	-do
.	.	.	.	1B	.	.	.	1dd	fi-
=3	=3	=3	=3	=3	=3	=3	=3	=3	=3
1C	Quo-	0.r	.	2r	.	0.r	.	1cc	-et
.	.	.	.	2.e	quo-	.	.	.	.
1E	-mo-	.	.	.	.	.	.	1b	.
.	.	.	.	4f	.	.	.	.	.
.	.	.	.	2g	.	.	.	.	.
1F	-do	.	.	2.c	-mo-	.	.	2a	i-
.	.	.	.	.	.	.	.	[2cc	.
.	.	.	.	4d	.	.	.	.	.
=4	=4	=4	=4	=4	=4	=4	=4	=4	=4
1G	fi-	0.r	.	2e	.	0.r	.	2cc]	.
.	.	.	.	2d	.	.	.	2b	.
1F	-et,	.	.	2A	.	.	.	1cc	-stud,
.	.	.	.	2c	.	.	.	.	.
1E	.	.	.	2.e	-do	.	.	2r	.
.	.	.	.	.	.	.	.	2g	quo-
.	.	.	.	4f	.	.	.	.	.
=5	=5	=5	=5	=5	=5	=5	=5	=5	=5
1r	.	0.G	Quo-	2.g	.	0.r	.	2.b	-mo-
.	.	.	.	4f	.	.	.	4cc	-do
2r	.	.	.	2d	.	.	.	2dd	fi-
2C	quo-	.	.	1.e	fi-	.	.	2cc	.
2.E	-mo-	.	.	.	.	.	.	1b	-et,
4F	.	.	.	.	.	.	.	.	.
=6	=6	=6	=6	=6	=6	=6	=6	=6	=6
1.G	-do	0.B	-mo-	1.d	.	0.r	.	2r	.
.	.	.	.	.	.	.	.	2g	quo-
.	.	.	.	.	.	.	.	2.b	-mo-
2E	fi-	.	.	1g	.	.	.	.	.
.	.	.	.	.	.	.	.	4cc	-do
1D	-et	.	.	.	.	.	.	1dd	fi-
.	.	.	.	2f	.	.	.	.	.
=7	=7	=7	=7	=7	=7	=7	=7	=7	=7
0.C	.	0.c	-do	1e	-et	0.g	Quo-	2ee	-et
.	.	.	.	.	.	.	.	2cc	.
.	.	.	.	2r	.	.	.	2.ee	i-
.	.	.	.	1e	i-	.	.	.	.
.	.	.	.	.	.	.	.	4ff	.
.	.	.	.	.	.	.	.	[1gg	.
.	.	.	.	4d	.	.	.	.	.
.	.	.	.	4c	.	.	.	.	.
=8	=8	=8	=8	=8	=8	=8	=8	=8	=8
0.G	i-	0.d	fi-	2.B	.	0.b	-mo-	2gg]	.
.	.	.	.	.	.	.	.	4ff	.
.	.	.	.	4c	.	.	.	4ee	.
.	.	.	.	2d	.	.	.	2dd	.
.	.	.	.	2G	.	.	.	1dd	.
.	.	.	.	1g	.	.	.	.	.
.	.	.	.	.	.	.	.	4cc	.
.	.	.	.	.	.	.	.	4b	.
=9	=9	=9	=9	=9	=9	=9	=9	=9	=9
1A	.	0.c	-et	1e	.	0.cc	-do	0.a	.
2.F	.	.	.	1f	.	.	.	.	.
4G	.	.	.	.	.	.	.	.	.
1A	.	.	.	2e	.	.	.	.	.
.	.	.	.	2a	.	.	.	.	.
=10	=10	=10	=10	=10	=10	=10	=10	=10	=10
0G	-stud,	0.B	.	1d	-stud,	0.dd	fi-	1b	.
.	.	.	.	2r	.	.	.	2.g	.
.	.	.	.	2d	i-	.	.	.	.
.	.	.	.	.	.	.	.	4a	.
2r	.	.	.	2.g	.	.	.	1b	.
2G	i-	.	.	.	.	.	.	.	.
.	.	.	.	4f	.	.	.	.	.
=11	=11	=11	=11	=11	=11	=11	=11	=11	=11
2A	.	0.r	.	4e	.	0.cc	-et	2a	.
.	.	.	.	4d	.	.	.	.	.
2.c	.	.	.	2.e	.	.	.	1g	.
4B	.	.	.	4d	.	.	.	.	.
4A	.	.	.	4c	.	.	.	4f	.
4G	.	.	.	4B	.	.	.	4e	.
1A	.	.	.	2.c	.	.	.	1f	.
.	.	.	.	4d	.	.	.	.	.
=12	=12	=12	=12	=12	=12	=12	=12	=12	=12
0.G	-stud,	0.r	.	2e	.	0.b	.	0.g	-stud,
.	.	.	.	2d	-stud,	.	.	.	.
.	.	.	.	2r	.	.	.	.	.
.	.	.	.	2.d	i-	.	.	.	.
.	.	.	.	4c	.	.	.	.	.
.	.	.	.	4d	.	.	.	.	.
.	.	.	.	4e	.	.	.	.	.
=13	=13	=13	=13	=13	=13	=13	=13	=13	=13
2.F	i-	2.A	i-	1f	.	0.r	.	1a	.
4E	.	4G	.	.	.	.	.	.	.
4F	.	4A	.	1c	-stud,	.	.	2r	.
4G	.	4B	.	.	.	.	.	.	.
1.A	.	1c	.	.	.	.	.	2.e	i-
.	.	.	.	1r	.	.	.	.	.
.	.	.	.	.	.	.	.	4d	.
.	.	4B	.	.	.	.	.	4e	.
.	.	4A	.	.	.	.	.	4f	.
=14	=14	=14	=14	=14	=14	=14	=14	=14	=14
1G	.	2B	.	2r	.	0.r	.	1g	.
.	.	2.d	.	2B	i-	.	.	.	.
2F	.	.	.	2A	.	.	.	2a	.
.	.	4c	.	.	.	.	.	.	.
2E	.	1c	.	2c	.	.	.	2g	.
1D	.	.	.	1d	.	.	.	1f	.
.	.	2B	.	.	.	.	.	.	.
=15	=15	=15	=15	=15	=15	=15	=15	=15	=15
0A	.	0.c	-stud,	0e	.	2.a	i-	2e	.
.	.	.	.	.	.	.	.	2c	.
.	.	.	.	.	.	4g	.	.	.
.	.	.	.	.	.	4a	.	4cc	.
.	.	.	.	.	.	4b	.	4b	.
.	.	.	.	.	.	1cc	.	4a	.
.	.	.	.	.	.	.	.	4g	.
1F	-stud,	.	.	1f	.	.	.	1a	.
.	.	.	.	.	.	4b	.	.	.
.	.	.	.	.	.	4a	.	.	.
=16	=16	=16	=16	=16	=16	=16	=16	=16	=16
2r	.	0.r	.	2e	.	2b	.	0g	-stud,
2G	quo-	.	.	1d	.	2.dd	.	.	.
2B	-mo-	.	.	.	.	.	.	.	.
.	.	.	.	.	.	4cc	.	.	.
2c	-do	.	.	1g	.	1cc	.	.	.
1d	fi-	.	.	.	.	.	.	1r	.
.	.	.	.	2f	.	2b	.	.	.
=17	=17	=17	=17	=17	=17	=17	=17	=17	=17
2c	-et	1c	An-	2g	.	0.cc	-stud,	2r	.
1F	i-	.	.	2.f	.	.	.	1a	An-
.	.	1c	-ge-	.	.	.	.	.	.
.	.	.	.	4e	.	.	.	.	.
2E	.	.	.	1c	.	.	.	2g	-ge-
2.F	-stud,	1A	-le	.	.	.	.	2.a	-le
.	.	.	.	2f	.	.	.	.	.
4E	.	.	.	.	.	.	.	4b	.
=18	=18	=18	=18	=18	=18	=18	=18	=18	=18
2C	.	2r	.	2e	.	0.r	.	2cc	.
2E	.	2G	De-	2g	.	.	.	2b	De-
2D	.	2A	.	2f	.	.	.	2dd	.
2C	An-	1c	.	2e	.	.	.	2ee	.
1D	-ge-	.	.	1d	-stud,	.	.	1ff	.
.	.	2B	.	.	.	.	.	.	.
=19	=19	=19	=19	=19	=19	=19	=19	=19	=19
2.C	-le	1c	-i,	2G	An-	1cc	An-	2ee	-i,
.	.	.	.	2A	-ge-	.	.	1ee	An-
4D	.	.	.	.	.	.	.	.	.
2E	.	1r	.	2G	.	1cc	-ge-	.	.
2.F	De-	.	.	2.A	-le	.	.	2cc	-ge-
.	.	1r	.	.	.	1a	-le	1cc	-le
4G	.	.	.	4B	.	.	.	.	.
4A	.	.	.	4c	.	.	.	.	.
4B	.	.	.	4d	.	.	.	.	.
=20	=20	=20	=20	=20	=20	=20	=20	=20	=20
2c	.	1c	qui-	1e	.	2r	.	2r	.
2C	.	.	.	.	.	2g	De-	1cc	De-
2F	.	1c	-a	2r	.	2a	.	.	.
2A	.	.	.	2A	De-	1cc	.	2f	.
1G	.	1d	vi-	2.B	.	.	.	1g	-i,
.	.	.	.	.	.	2b	.	.	.
.	.	.	.	4G	.	.	.	.	.
=21	=21	=21	=21	=21	=21	=21	=21	=21	=21
4C	-i,	1e	.	2G	-i,	1cc	-i,	2.g	qui-
4D	.	.	.	.	.	.	.	.	.
4E	.	.	.	1g	qui-	.	.	.	.
4F	.	.	.	.	.	.	.	4a	.
2G	.	2d	-rum	.	.	1r	.	2b	-a
2.A	qui-	1c	in	2e	-a	.	.	2.cc	vi-
.	.	.	.	1e	vi-	1r	.	.	.
4G	.	.	.	.	.	.	.	4b	.
2E	.	2c	con-	.	.	.	.	2g	.
=22	=22	=22	=22	=22	=22	=22	=22	=22	=22
2F	.	2A	-ci-	0c	-rum	1cc	qui-	2a	.
2C	-a	2G	-pi-	.	.	.	.	2e	.
2F	vi-	2A	-en-	.	.	1cc	-a	2f	.
2A	.	1c	.	.	.	.	.	2e	.
1G	-rum	.	.	1r	.	1dd	vi-	1g	.
.	.	2B	.	.	.	.	.	.	.
=23	=23	=23	=23	=23	=23	=23	=23	=23	=23
4C	in	1c	-do	2r	.	1ee	.	1e	-rum
4D	.	.	.	.	.	.	.	.	.
4E	.	.	.	1g	in	.	.	.	.
4F	.	.	.	.	.	.	.	.	.
2G	con-	1r	.	.	.	2dd	-rum	2r	.
2.A	-ci-	.	.	2e	con-	1cc	in	1ee	in
.	.	1r	.	2e	-ci-	.	.	.	.
4B	-pi-	.	.	.	.	.	.	.	.
2c	-en-	.	.	2e	-pi-	2cc	con-	2ee	con-
=24	=24	=24	=24	=24	=24	=24	=24	=24	=24
2F	.	1r	.	2f	-en-	2a	-ci-	1.cc	-ci-
2C	.	.	.	2e	.	2g	-pi-	.	.
1F	-do	1c	non	1f	.	2a	-en-	.	.
.	.	.	.	.	.	1cc	.	2a	-pi-
2r	.	1G	per-	1d	-do	.	.	1dd	-en-
2G	non	.	.	.	.	2b	.	.	.
=25	=25	=25	=25	=25	=25	=25	=25	=25	=25
2A	.	2F	-tu-	2r	.	1cc	-do	1a	-do
1F	.	1A	-li,	4f	non	.	.	.	.
.	.	.	.	4e	.	.	.	.	.
.	.	.	.	4d	.	1r	.	2r	.
.	.	.	.	4c	.	.	.	.	.
2E	.	1G	.	1c	.	.	.	2cc	non
1D	per-	.	.	.	.	1r	.	2dd	per-
.	.	2F	.	2B	.	.	.	2ff	.
=26	=26	=26	=26	=26	=26	=26	=26	=26	=26
1C	-tu-	1G	.	2c	per-	1r	.	2ee	.
.	.	.	.	2c	-tu-	.	.	2ee	-tu-
1F	-li,	2r	.	2.c	-li,	1cc	non	1a	-li,
.	.	2A	non	.	.	.	.	.	.
.	.	.	.	4d	.	.	.	.	.
1E	.	2B	.	1e	.	1g	per-	1r	.
.	.	2c	.	.	.	.	.	.	.
=27	=27	=27	=27	=27	=27	=27	=27	=27	=27
2.D	non	1d	per-	2r	.	2f	-tu-	1a	non
.	.	.	.	2.f	non	1a	-li?	.	.
4E	.	.	.	.	.	.	.	.	.
2F	.	2c	-tu-	.	.	.	.	2r	.
.	.	.	.	4e	.	.	.	.	.
2G	per-	2B	.	4d	.	1g	.	2.dd	per-
.	.	.	.	4c	.	.	.	.	.
1D	.	1A	.	1d	.	.	.	.	.
.	.	.	.	.	.	.	.	4cc	.
.	.	.	.	.	.	2f	.	2a	.
=28	=28	=28	=28	=28	=28	=28	=28	=28	=28
4G	.	[0.Gl	-li?	2B	per-	[0.gl	.	1b	.
4F	.	.	.	.	.	.	.	.	.
4E	.	.	.	1e	-tu-	.	.	.	.
4D	.	.	.	.	.	.	.	.	.
2C	.	.	.	.	.	.	.	2cc	.
2BB	.	.	.	1d	.	.	.	2dd	-tu-
2C	.	.	.	.	.	.	.	2.ee	-li?
2C	-tu-	.	.	2c	.	.	.	.	.
.	.	.	.	.	.	.	.	4dd	.
=29	=29	=29	=29	=29	=29	=29	=29	=29	=29
00G	-li?	00G]	.	00d	-li?	00g]	.	00b	.
=30||	=30||	=30||	=30||	=30||	=30||	=30||	=30||	=30||	=30||
*M2/1	*	*M2/1	*	*M2/1	*	*M2/1	*	*M2/1	*
*met(C2)	*	*met(C2)	*	*met(C2)	*	*met(C2)	*	*met(C2)	*
!!section: Secunda pars: Audi, Maria
!!!OMD: Secunda pars: Audi, Maria
!	!	!LO:TX:a:t=Canon&colon; tenor/superius II at the fifth	!	!	!	!	!	!	!
0r	.	0r	.	0B	Au-	0r	.	0r	.
=31	=31	=31	=31	=31	=31	=31	=31	=31	=31
0r	.	0r	.	0A	-di,	0r	.	0r	.
=32	=32	=32	=32	=32	=32	=32	=32	=32	=32
0r	.	0r	.	1B	Ma-	0r	.	0b	Au-
.	.	.	.	1d	.	.	.	.	.
=33	=33	=33	=33	=33	=33	=33	=33	=33	=33
0r	.	0r	.	1d	-ri-	0r	.	0a	-di,
.	.	.	.	1c	.	.	.	.	.
=34	=34	=34	=34	=34	=34	=34	=34	=34	=34
0r	.	0r	.	2B	-a	0r	.	1b	Ma-
.	.	.	.	2e	.	.	.	.	.
.	.	.	.	2d	.	.	.	1dd	.
.	.	.	.	[2g	.	.	.	.	.
=35	=35	=35	=35	=35	=35	=35	=35	=35	=35
0r	.	0r	.	4g]	.	0r	.	1dd	-ri-
.	.	.	.	4f	.	.	.	.	.
.	.	.	.	2d	.	.	.	.	.
.	.	.	.	2e	.	.	.	1cc	.
.	.	.	.	2f	.	.	.	.	.
=36	=36	=36	=36	=36	=36	=36	=36	=36	=36
0E	Au-	0r	.	1.g	.	0r	.	1.b	-a,
.	.	.	.	2e	.	.	.	2cc	.
=37	=37	=37	=37	=37	=37	=37	=37	=37	=37
0D	-di,	0r	.	2f	.	0r	.	2dd	.
.	.	.	.	1g	.	.	.	2b	.
.	.	.	.	.	.	.	.	1a	.
.	.	.	.	2f#i	.	.	.	.	.
=38	=38	=38	=38	=38	=38	=38	=38	=38	=38
1E	Ma-	0e	Au-	2g	.	0r	.	2r	.
.	.	.	.	2c	.	.	.	1g	Ma-
1G	.	.	.	2B	Vir-	.	.	.	.
.	.	.	.	4G	-go,	.	.	[2b	-ri-
.	.	.	.	4A	.	.	.	.	.
=39	=39	=39	=39	=39	=39	=39	=39	=39	=39
1G	-ri-	0d	-di,	4B	.	0r	.	2b]	.
.	.	.	.	4c	.	.	.	.	.
.	.	.	.	4d	.	.	.	4a	.
.	.	.	.	4e	.	.	.	4g	.
1F	.	.	.	1f	.	.	.	1a	.
=40	=40	=40	=40	=40	=40	=40	=40	=40	=40
1E	-a,	0r	.	2r	.	0b	Au-	4g	-a
.	.	.	.	.	.	.	.	4a	.
.	.	.	.	1g	Vir-	.	.	4b	.
.	.	.	.	.	.	.	.	4cc	.
[1D	.	.	.	.	.	.	.	[1dd	.
.	.	.	.	4f	.	.	.	.	.
.	.	.	.	4e	.	.	.	.	.
=41	=41	=41	=41	=41	=41	=41	=41	=41	=41
1D]	.	0r	.	1f	.	0a	-di,	2dd]	.
.	.	.	.	.	.	.	.	4cc	.
.	.	.	.	.	.	.	.	4b	.
1A	Ma-	.	.	1e	-go,	.	.	2cc	.
.	.	.	.	.	.	.	.	[2a	.
=42	=42	=42	=42	=42	=42	=42	=42	=42	=42
1c	.	1e	Ma-	1r	.	0r	.	2a]	.
.	.	.	.	.	.	.	.	4g	.
.	.	.	.	.	.	.	.	4f	.
1c	-ri-	1g	.	2r	.	.	.	1e	.
.	.	.	.	2c	Ma-	.	.	.	.
=43	=43	=43	=43	=43	=43	=43	=43	=43	=43
1B	.	1g	-ri-	2G	-ri-	0r	.	2.d	.
.	.	.	.	2B	.	.	.	.	.
.	.	.	.	.	.	.	.	4e	.
1A	-a	1f	.	1c	-a	.	.	4f	.
.	.	.	.	.	.	.	.	4g	.
.	.	.	.	.	.	.	.	4a	.
.	.	.	.	.	.	.	.	4f	.
=44	=44	=44	=44	=44	=44	=44	=44	=44	=44
1.G	.	1e	-a	1.B	Vir-	1b	Ma-	1g	.
.	.	1d	.	.	.	1dd	.	2r	.
4F	.	.	.	4A	.	.	.	2g	Vir-
4E	.	.	.	4G	.	.	.	.	.
=45	=45	=45	=45	=45	=45	=45	=45	=45	=45
2D	.	1r	.	2A	.	1dd	-ri-	2f	.
2G	.	.	.	2B	.	.	.	2d	.
4C	Vir-	1e	Vir-	1c	-go,	1cc	.	1g	-go,
4D	.	.	.	.	.	.	.	.	.
4E	.	.	.	.	.	.	.	.	.
4F	.	.	.	.	.	.	.	.	.
=46	=46	=46	=46	=46	=46	=46	=46	=46	=46
1G	.	[0d	-go:	2r	.	1b	-a	2r	.
.	.	.	.	2G	Vir-	.	.	1g	Vir-
1D	.	.	.	1A	.	1a	.	.	.
.	.	.	.	.	.	.	.	2f	.
=47	=47	=47	=47	=47	=47	=47	=47	=47	=47
2G	.	0d]	.	2B	.	1r	.	2g	.
2F	.	.	.	2A	.	.	.	1a	.
1G	.	.	.	4B	-go:	1b	Vir-	.	.
.	.	.	.	4c	.	.	.	.	.
.	.	.	.	4d	.	.	.	2g	.
.	.	.	.	4e	.	.	.	.	.
=48	=48	=48	=48	=48	=48	=48	=48	=48	=48
2F	.	1r	.	1f	.	[0a	-go:	2a	.
2D	.	.	.	.	.	.	.	1dd	.
1A	.	1e	Spi-	1r	.	.	.	.	.
.	.	.	.	.	.	.	.	2cc#i	.
=49	=49	=49	=49	=49	=49	=49	=49	=49	=49
1D	-go:	1d	-ri-	1f	Spi-	0a]	.	1dd	.
1A	Spi-	1c	-tus	2e	-ri-	.	.	2ee	.
.	.	.	.	2f	-tus	.	.	2cc	.
=50	=50	=50	=50	=50	=50	=50	=50	=50	=50
0G	-ri-	[0d	San-	1.g	San-	1r	.	1b	-go:
.	.	.	.	.	.	1b	Spi-	1r	.
.	.	.	.	2G	.	.	.	.	.
=51	=51	=51	=51	=51	=51	=51	=51	=51	=51
1F	.	1d]	.	1A	.	1a	-ri-	1r	.
1E	.	[1e	.	1B	.	1g	-tus	1b	Spi-
=52	=52	=52	=52	=52	=52	=52	=52	=52	=52
0A	-tus	0e]	.	1A	-ctus,	[0a	San-	2cc	-ri-
.	.	.	.	.	.	.	.	2.cc	-tus
.	.	.	.	2r	.	.	.	.	.
.	.	.	.	.	.	.	.	4b	.
.	.	.	.	2c	San-	.	.	4a	.
.	.	.	.	.	.	.	.	4g	.
=53	=53	=53	=53	=53	=53	=53	=53	=53	=53
1D	San-	0d	-ctus	1d	.	1a]	.	1f	.
1G	.	.	.	1B	.	[1b	.	2r	.
.	.	.	.	.	.	.	.	[2g	San-
=54	=54	=54	=54	=54	=54	=54	=54	=54	=54
1E	-ctus	0r	.	1e	-ctus	0b]	.	2g]	.
.	.	.	.	.	.	.	.	2.g	-ctus
1r	.	.	.	1r	.	.	.	.	.
.	.	.	.	.	.	.	.	4f	.
.	.	.	.	.	.	.	.	4e	.
.	.	.	.	.	.	.	.	4d	.
=55	=55	=55	=55	=55	=55	=55	=55	=55	=55
1F	su-	0r	.	2r	.	0a	-ctus	1c	.
.	.	.	.	2.A	su-	.	.	.	.
1F	-per-	.	.	.	.	.	.	2r	.
.	.	.	.	4B	.	.	.	.	.
.	.	.	.	4c	.	.	.	2cc	su-
.	.	.	.	4d	.	.	.	.	.
=56	=56	=56	=56	=56	=56	=56	=56	=56	=56
2G	-ve-	0r	.	1e	.	0r	.	2b	-per-
1A	.	.	.	.	.	.	.	1cc	-ve-
.	.	.	.	2c	-per-	.	.	.	.
2G	-ni-	.	.	2e	-ve-	.	.	2b	-ni-
=57	=57	=57	=57	=57	=57	=57	=57	=57	=57
1F	-et	1c	su-	2f	.	0r	.	1a	-et,
.	.	.	.	2F	-ni-	.	.	.	.
1E	.	1c	-per-	2.G	-et	.	.	1g	.
.	.	.	.	4A	.	.	.	.	.
=58	=58	=58	=58	=58	=58	=58	=58	=58	=58
2D	.	2d	-ve-	4B	.	0r	.	2r	.
.	.	.	.	4A	.	.	.	.	.
1C	.	1e	-ni-	2c	.	.	.	1cc	su-
.	.	.	.	1G	.	.	.	.	.
2BB	.	2d	-et	.	.	.	.	2dd	-per-
=59	=59	=59	=59	=59	=59	=59	=59	=59	=59
4C	in	1c	.	1r	.	1g	su-	2ee	-ve-
4D	.	.	.	.	.	.	.	.	.
4E	.	.	.	.	.	.	.	2ee	-ni-
4F	.	.	.	.	.	.	.	.	.
1G	.	1B	.	2.d	in	1g	-per-	1dd	-et,
.	.	.	.	4e	.	.	.	.	.
=60	=60	=60	=60	=60	=60	=60	=60	=60	=60
2F	.	0r	.	4f	.	2a	-ve-	2r	.
.	.	.	.	4e	.	.	.	.	.
2G	.	.	.	4d	.	1b	-ni-	1gg	su-
.	.	.	.	4c	.	.	.	.	.
1D	.	.	.	1d	.	.	.	.	.
.	.	.	.	.	.	2a	-et	2ff	-per-
=61	=61	=61	=61	=61	=61	=61	=61	=61	=61
2E	.	1r	.	2B	.	1g	.	2gg	-ve-
2C	.	.	.	2e	.	.	.	2ee	.
4D	.	1A	in	1d	te,	1f	.	1ff	.
4E	.	.	.	.	.	.	.	.	.
4F	.	.	.	.	.	.	.	.	.
4G	.	.	.	.	.	.	.	.	.
=62	=62	=62	=62	=62	=62	=62	=62	=62	=62
1.A	.	[0c	te,	1r	.	0r	.	1.ee	.
.	.	.	.	1A	in	.	.	.	.
2AA	.	.	.	.	.	.	.	2cc	-ni-
=63	=63	=63	=63	=63	=63	=63	=63	=63	=63
1AA	.	0c]	.	1A	te,	1r	.	2cc	-et
.	.	.	.	.	.	.	.	2.a	in
1A	.	.	.	1r	.	1e	in	.	.
.	.	.	.	.	.	.	.	4b	.
.	.	.	.	.	.	.	.	4cc	.
.	.	.	.	.	.	.	.	4dd	.
=64	=64	=64	=64	=64	=64	=64	=64	=64	=64
2.E	.	0B	et	2r	.	[0g	te,	1ee	.
.	.	.	.	2.G	et	.	.	.	.
4F	.	.	.	.	.	.	.	.	.
1G	.	.	.	.	.	.	.	1dd	.
.	.	.	.	4A	.	.	.	.	.
.	.	.	.	2B	.	.	.	.	.
=65	=65	=65	=65	=65	=65	=65	=65	=65	=65
0C	te,	0c	.	1G	vir-	0g]	.	2.ee	te,
.	.	.	.	.	.	.	.	4dd	.
.	.	.	.	1G	-tus,	.	.	2.cc	.
.	.	.	.	.	.	.	.	4b	.
=66	=66	=66	=66	=66	=66	=66	=66	=66	=66
0r	.	0d	vir-	0r	.	0f	et	4a	.
.	.	.	.	.	.	.	.	4g	.
.	.	.	.	.	.	.	.	1a	.
.	.	.	.	.	.	.	.	4g	.
.	.	.	.	.	.	.	.	4f	.
=67	=67	=67	=67	=67	=67	=67	=67	=67	=67
1r	.	0c	-tus	1r	.	0g	.	1e	.
1C	et	.	.	1e	et	.	.	2r	.
.	.	.	.	.	.	.	.	2ee	et
=68	=68	=68	=68	=68	=68	=68	=68	=68	=68
0F	vir-	1r	.	0f	vir-	0a	vir-	1cc	vir-
.	.	1A	Al-	.	.	.	.	2.cc	-tus
.	.	.	.	.	.	.	.	4dd	.
=69	=69	=69	=69	=69	=69	=69	=69	=69	=69
1C	-tus	1c	-tis-	1e	-tus	0g	-tus	1ee	.
1G	Al-	1B	.	2r	.	.	.	2dd	.
.	.	.	.	2d	Al-	.	.	[2g	Al-
=70	=70	=70	=70	=70	=70	=70	=70	=70	=70
1D	-tis-	1A	-si-	1d	-tis-	1r	.	2g]	.
.	.	.	.	.	.	.	.	2f	.
2.E	.	1G	.	2B	-si-	1e	Al-	2g	-tis-
.	.	.	.	[2c	.	.	.	2g	-si-
4C	-si-	.	.	.	.	.	.	.	.
=71	=71	=71	=71	=71	=71	=71	=71	=71	=71
1C	-mi,	1G	-mi	4c]	.	1g	-tis-	2e	-mi
.	.	.	.	4B	.	.	.	.	.
.	.	.	.	2G	.	.	.	2ee	.
2r	.	1r	.	2d	.	1f	.	2a	.
2F	Al-	.	.	2A	.	.	.	[2dd	ob-
=72	=72	=72	=72	=72	=72	=72	=72	=72	=72
2G	-tis-	1r	.	2B	.	1e	-si-	2dd]	.
2A	-si-	.	.	2c	.	.	.	2cc	-um-
1D	-mi	1F	ob-	1A	.	1d	.	2dd	-bra-
.	.	.	.	.	.	.	.	2dd	-bit
=73	=73	=73	=73	=73	=73	=73	=73	=73	=73
1r	.	1G	-um-	2G	.	1d	-mi	1b	ti-
.	.	.	.	1g	.	.	.	.	.
2r	.	1A	-bra-	.	.	1r	.	1a	-bi,
[2F	ob-	.	.	2f#i	.	.	.	.	.
=74	=74	=74	=74	=74	=74	=74	=74	=74	=74
2F]	.	1G	.	1g	-mi	1r	.	0r	.
2E	-um-	.	.	.	.	.	.	.	.
2F	-bra-	[1F	-bit	2r	.	1c	ob-	.	.
2F	-bit	.	.	[2c	ob-	.	.	.	.
=75	=75	=75	=75	=75	=75	=75	=75	=75	=75
1D	ti-	1F]	.	2c]	.	1d	-um-	1r	.
.	.	.	.	2B	-um-	.	.	.	.
1C	-bi,	1G	ti-	2c	-bra-	1e	-bra-	2r	.
.	.	.	.	2g	-bit	.	.	[2cc	ob-
=76	=76	=76	=76	=76	=76	=76	=76	=76	=76
1r	.	[0Gl	-bi.	0g	ti-	1d	.	2cc]	.
.	.	.	.	.	.	.	.	2b	-um-
[1C	ti-	.	.	.	.	[1c	-bit	[1cc	-bra-
=77	=77	=77	=77	=77	=77	=77	=77	=77	=77
1C]	.	0G_	.	[0gl	-bi.	1c]	.	2cc]	.
.	.	.	.	.	.	.	.	2cc	-bit
1G	.	.	.	.	.	1d	ti-	1b	ti-
=78	=78	=78	=78	=78	=78	=78	=78	=78	=78
00Gl	-bi.	00G]	.	00g]	.	00dl	-bi.	00bl	-bi.
==	==	==	==	==	==	==	==	==	==
*-	*-	*-	*-	*-	*-	*-	*-	*-	*-
!!!system-decoration: [*]
!!!RDF**kern: i = editorial accidental
!!!RDF**kern: l = terminal long
!!!!PTL: <i> New Senfl Edition: Motets for Five Voices</i>
!!!PPR: Hollitzer Verlag
!!!PC#: Denkmäler der Tonkunst in Österreich 163.3
!!!PDT: 2022
!!!PED: Scott Lee Edwards, Stefan Gasch, and Sonja Tröster
!!!YEC: Copyright 2022 Denkmäler der Tonkunst in Österreich
!!!YEM: CC-BY-NC 4.0 (https://creativecommons.org/licenses/by-nc/4.0/legalcode)
!!!EED: Benjamin Ory
!!!EEV: 2024/12/1
!!!verovio: header encoded
!!!header-left: @{PTL}\n@{PED}, eds.\n@{PC#} (@{PDT})&nbsp;\n
!!!header-right:
!!!header-center: